!!!COM: Ernest Chausson
!!!CNT: Francais
!!!TXO: Francais
!!!OTL: "Oraison"
!!!LYR: Maeterlinck
!!!OPR: Serres chaude
!!!OPS: Op. 24
!!!ONM: No. 5
!!!ENC: Emily Thomas
!!!YOR: CD Sheet Music French Art Songs, The Ultimate Collection
!!!YOR: CD Sheet Music, LLC 2003
!!!ODT: 1895/
!!NB: Vocal melody and text encoded.
**kern	**silbe
=1	=1
*clefG2	*
*k[b-e-a-d-g-c-]	*
*M2/2	*
*MM[Pas trop tent]	*
4r	.
{8b-	{Vous
8b-	sa-
4.b-	-vez,
8b-	Sei-
=2	=2
2b-	-gneur,
4a-	ma
4g-	mi-
=3	=3
2f	-se\-
4f}	-re!}
4r	.
=4	=4
4r	.
{4b-	Vo-
2b-	-yez
=5	=5
4b-	ce
8b-	que
8b-	je
4cc-	vous
4a-	ap-
=6	=6
2.g-	-por-
4f}	-te}
=7	=7
4r	.
{4ee-	Des
4.ee-	fleurs
8ee-	mau-
=8	=8
4.ee-	-vai-
8ee-	-ses
4dd-	de
4cc-	la
=9	=9
2b-	ter-
4b-}	-re}
4r	.
=10	=10
8r	.
{8cc-	{Et
8b-	du
8b-	sol-
2gg-	-eil
=11	=11
4ff	sur
8ff	u-
8ff	-ne
[2ggn	mor-
=12	=12
2.ggn]	|
[4ccn	-te
=13	=13
4ccn]}	|}
4r	.
2r	.
=14	=14
4r	.
{4dd-	{Voy-
4dd-	-ez
4ccn	aus-
=15	=15
2gg-	-si
4dd-	ma
8cc-	las-
8g-	-si-
=16	=16
2g-	-tu-
4g-}	-de,}
4r	.
=17	=17
4r	.
8r	.
{8dd-	{La
4dd-	lune
4ddn	e/-
=18	=18
4.ddn	-teinte
8gn	et
4.gn	l'au-
8gn	-be
=19	=19
2a-	noi-
4a-}	-re;}
4r	.
=20	=20
2r	.
{4ccn	{Et
8dd-	fe/-
8dd-	-con-
=21	=21
2ff	-dez
4ccn	ma
8ccn	so-
8dd-	-li-
=22	=22
[2dd-	-tude
8dd-]	|
8dd-	En
8ddn	l'ar-
8ddn	-ro-
=23	=23
4.an	-sant
8an	de
4an	vo-
4b-	-tre
=24	=24
2b-	gloi-
4b-}	-re.}
4r	.
=25	=25
1r	.
=26	=26
2r	.
{4.b-	{Ou-
8b-	-vrez-
=27	=27
2.b-	-moi,
4b-	Sei-
=28	=28
2cc-}	-gneur,}
{4.a-	{vo-
8a-	-tre
=29	=29
[2g-	voie,
8g-]}	|}
8r	.
4r	.
=30	=30
{2ee-	{E-
2ee-	-clai-
=31	=31
2.ff-	-rez
4ff-	mon
=32	=32
2.ffn	a^-
4ffn	-me
=33	=33
2ff	las-
4ee-	|
4dd-	|
=34	=34
2ccn}	-se}
2r	.
=35	=35
4r	.
{4b-	{Car
4b-	la
4b-	tris-
=36	=36
4.b-	-tes-
8b-	-se
4a-	de
4g-	ma
=37	=37
1f}	joie}
=38	=38
{[2e-	{Sem-
8e-]	|
4e-	-ble
8e-	de
=39	=39
2.cc-	l'her-
4cc-	-be
=40	=40
4r	.
2f	sous
4g-	la
=41	=41
2g-	gla-
4g-}	-ce.}
4r	.
==	==
*-	*-
